X:1
T:My Savior First of All
T:My Savior First of All
T:John Robson Sweney
T:Frances Jane (Fanny) Crosby, 1891
T:Public Domain Courtesy of the Cyber Hymnal™
T:Public Domain Courtesy of the Cyber Hymnal™
C:John Robson Sweney
Z:Public Domain
Z:Courtesy of the Cyber Hymnal™
%%score ( 1 2 ) ( 3 4 )
L:1/8
Q:1/4=100
M:4/4
K:Ab
V:1 treble 
V:2 treble 
V:3 bass 
V:4 bass 
V:1
 [CA][DB] | [Ec]2 [Ec][Ec] [Ec][Ec][DB][CA] | [Ec][CA][FA][DF] [CE]2 [CE][CE] | %3
w: 1.~When my|life work is end- ed, and I|cross the swell- ing tide, When the|
w: 2.~Oh, the|soul thrill- ing rap- ture when I|view His bless- èd face, And the|
w: 3.~Oh, the|dear ones in glo- ry, how they|beck- on me to come, And our|
w: 4.~Through the|gates to the ci- ty in a|robe of spot- less white, He will|
 [EA][EA][EA][EA] [EA][Ec][EB][=DA] | [EB]6 [Ec][Ed] | [Ee]2 [EA][EB] [Ac][Ac]EE | %6
w: bright and glor- ious morn- ing I shall|see; I shall|know my Re- deem- er when I|
w: lus- ter of His kind- ly beam- ing|eye; How my|full heart will praise Him for the|
w: part- ing at the riv- er I re-|call; To the|sweet vales of E- den they will|
w: lead me where no tears will ev- er|fall; In the|glad song of ag- es I shall|
 [DF][DF][DF][DF] [FA]2 [EG][DF] | [CE][CE][CA][Ec] [Ec][DB][DF][DG] | [CA]6 || %9
w: reach the o- ther side, And His|smile will be the first to wel- come|me.|
w: mer- cy, love and grace, That pre-|pare for me a man- sion in the|sky.|
w: sing my wel- come home; But I|long to meet my Sav- ior first of|all.|
w: min- gle with de- light; But I|long to meet my Sav- ior first of|all.|
"^Refrain" [Ec][Ec] | [DB]4- [DB][DG][DF][DG] | [CA]4 [CE]2 [EA][EB] | %12
w: |||
w: I shall|know * Him, I shall|know Him, And re-|
w: |||
w: |||
 [Ac]2 [Ac][Ac] ([Gd][Ac])[EB][FA] | [GB]6 cd | (z2 [Ee][Ec]) [Fd][Ec] x2 | [FB]4 [DF]2 [DG][DF] | %16
w: ||||
w: deemed by His side * I shall|stand, I shall|* * know Him,|I shall know Him,|
w: ||||
w: ||||
 [CE]2 [CA][Ec] (cB)[DF][DG] | [CA]6 |] %18
w: ||
w: By the print of * the nails|in|
w: ||
w: ||
V:2
 x2 | x8 | x8 | x8 | x8 | x8 | x8 | x8 | x6 || x2 | x8 | x8 | x8 | x6 cd | (e4 EE) x2 | x8 | %16
 x4 D2 x2 | x6 |] %18
V:3
 [A,,E,][A,,E,] | [A,,A,]2 [A,,A,][A,,A,] [A,,A,][A,,A,][A,,E,][A,,E,] | %2
 [A,,A,][A,,A,][D,A,][D,A,] [A,,A,]2 [A,,A,][A,,A,] | [A,C][A,C][A,C][A,C] [A,C]A,[G,B,][F,B,] | %4
 [E,G,]6 A,[A,B,] | [A,C]2 [A,C][A,D] [A,E][A,E][C,A,][C,A,] | %6
 [D,A,][D,A,][D,A,][D,A,] [D,A,]2 [D,A,][D,A,] | %7
 [E,A,][E,A,][E,A,][E,A,] [E,G,][E,G,][E,B,][E,B,] | [A,,A,]6 || z2 | %10
 z2 ([E,G,][E,G,] [E,G,])[E,B,][E,A,][E,B,] | [A,,A,]4 [A,,A,]2 [A,C][A,D] | %12
 [A,E]2 [A,E][A,E] E2 [G,E][F,=D] | [E,E]6 z2 | z2 ([A,C][A,C]) ([A,C] A,)A,A, | %15
 [D,A,]4 [D,A,]2 [D,A,][D,A,] | [E,A,]2 [E,A,][E,A,] [E,G,]2 [E,B,][E,B,] | [A,,A,]6 |] %18
V:4
 x2 | x8 | x8 | x8 | x6 A, x | x8 | x8 | x8 | x6 || x2 | x8 | x8 | x4 (B,A,) x2 | x8 | x5 A,A,A, | %15
 x8 | x8 | x6 |] %18

